images/ico/tix.svg

<svg height="32" viewBox="0 0 32 32" width="32" xmlns="http://www.w3.org/2000/svg"><g fill="none" fill-rule="evenodd"><circle cx="16" cy="16" fill="#ef494d" fill-rule="nonzero" r="16"/><path d="m6 11.3864717c.00000094-.2134992.17307699-.3865737.38657618-.3865727v.000101c1.84363749.0000081 3.51832143.0000122 5.02405182.0000122 2.3188406 0 3.768116 1.1955364 3.768116 2.8846119 0 .7051273-.3220612 1.3461522-.9661836 1.9230745.9017713.5128199 1.352657 1.2820498 1.352657 2.3076895 0 2.4038433-2.3188406 2.8846119-3.8647343 2.8846119-1.77133656 0-3.54267312 0-5.31400967 0-.21344338 0-.38647343-.17303-.38647343-.3864734v-1.1501278c0-.2134433.17303005-.3864734.38647343-.3864734h5.31400967c1.095008 0 1.6425121-.3525637 1.6425121-1.057691s-.5475041-1.0897423-1.6425121-1.1538447h-5.31400967c-.21344338 0-.38647343-.1730301-.38647343-.3864735v-1.1501277c0-.2134434.17303005-.3864734.38647343-.3864734h5.31400967c.7729469-.128205 1.1594203-.4487174 1.1594203-.9615373 0-.7051274-.3864734-1.057691-1.1594203-1.057691h-5.31400967c-.21344338 0-.38647343-.1730301-.38647343-.3864735v-1.1501399zm10.4347826.0000139c0-.2134434.1730301-.3864734.3864734-.3864734h5.120773c.2134434 0 .3864734.17303.3864734.3864734v9.227041c0 .2134434-.17303.3864734-.3864734.3864734h-1.4492754c-.2134434 0-.3864734-.17303-.3864734-.3864734v-7.3039664c0-.2134434-.1730301-.3864734-.3864734-.3864734h-2.8985508c-.2134433 0-.3864734-.1730301-.3864734-.3864735zm7.2463768-.3864734h1.9323672c.2134434 0 .3864734.17303.3864734.3864734v1.1501277c0 .2134434-.17303.3864735-.3864734.3864735h-1.9323672c-.2134434 0-.3864734-.1730301-.3864734-.3864735v-1.1501277c0-.2134434.17303-.3864734.3864734-.3864734z" fill="#fff"/></g></svg>

<svg height="32" viewBox="0 0 32 32" width="32" xmlns="http://www.w3.org/2000/svg"><g fill="none" fill-rule="evenodd"><circle cx="16" cy="16" fill="#ef494d" fill-rule="nonzero" r="16"/><path d="M6 11.386c0-.213.173-.386.387-.386h5.024c2.318 0 3.768 1.196 3.768 2.885 0 .705-.322 1.346-.966 1.923.901.513 1.352 1.282 1.352 2.307C15.565 20.52 13.246 21 11.7 21H6.386A.386.386 0 0 1 6 20.614v-1.15c0-.214.173-.387.386-.387H11.7c1.095 0 1.643-.353 1.643-1.058s-.548-1.09-1.643-1.154H6.386A.386.386 0 0 1 6 16.48v-1.15c0-.214.173-.387.386-.387H11.7c.773-.128 1.16-.448 1.16-.961 0-.705-.387-1.058-1.16-1.058H6.386A.386.386 0 0 1 6 12.537v-1.15zm10.435 0c0-.213.173-.386.386-.386h5.121c.213 0 .387.173.387.386v9.228a.386.386 0 0 1-.387.386h-1.45a.386.386 0 0 1-.386-.386V13.31a.386.386 0 0 0-.386-.387h-2.9a.386.386 0 0 1-.386-.386zM23.68 11h1.933c.213 0 .386.173.386.386v1.15a.386.386 0 0 1-.386.387H23.68a.386.386 0 0 1-.386-.386v-1.15c0-.214.173-.387.386-.387z" fill="#fff"/></g></svg>
